src/assets/icons/alert-octagon.svg

<?xml version="1.0" encoding="UTF-8"?>
<svg width="250px" height="250px" viewBox="0 0 250 250" version="1.1" xmlns="http://www.w3.org/2000/svg" xmlns:xlink="http://www.w3.org/1999/xlink">
    <!-- Generator: Sketch 52.2 (67145) - http://www.bohemiancoding.com/sketch -->
    <title>alert-octagon</title>
    <desc>Created with Sketch.</desc>
    <defs>
        <path d="M16.375,2.08333333 L33.625,2.08333333 C34.1775344,2.08333333 34.7074383,2.30282675 35.0981391,2.69352754 L47.3064725,14.9018609 C47.6971732,15.2925617 47.9166667,15.8224656 47.9166667,16.375 L47.9166667,33.625 C47.9166667,34.1775344 47.6971732,34.7074383 47.3064725,35.0981391 L35.0981391,47.3064725 C34.7074383,47.6971732 34.1775344,47.9166667 33.625,47.9166667 L16.375,47.9166667 C15.8224656,47.9166667 15.2925617,47.6971732 14.9018609,47.3064725 L2.69352754,35.0981391 C2.30282675,34.7074383 2.08333333,34.1775344 2.08333333,33.625 L2.08333333,16.375 C2.08333333,15.8224656 2.30282675,15.2925617 2.69352754,14.9018609 L14.9018609,2.69352754 C15.2925617,2.30282675 15.8224656,2.08333333 16.375,2.08333333 Z M17.2379449,6.25 L6.25,17.2379449 L6.25,32.7620551 L17.2379449,43.75 L32.7620551,43.75 L43.75,32.7620551 L43.75,17.2379449 L32.7620551,6.25 L17.2379449,6.25 Z M22.9166667,16.6666667 C22.9166667,15.5160734 23.8494068,14.5833333 25,14.5833333 C26.1505932,14.5833333 27.0833333,15.5160734 27.0833333,16.6666667 L27.0833333,25 C27.0833333,26.1505932 26.1505932,27.0833333 25,27.0833333 C23.8494068,27.0833333 22.9166667,26.1505932 22.9166667,25 L22.9166667,16.6666667 Z M23.5268609,32.7231391 C22.7132686,31.9095469 22.7132686,30.5904531 23.5268609,29.7768609 C24.3404531,28.9632686 25.6595469,28.9632686 26.4731391,29.7768609 C27.2867314,30.5904531 27.2867314,31.9095469 26.4731391,32.7231391 C25.6595469,33.5367314 24.3404531,33.5367314 23.5268609,32.7231391 Z" id="path-1"></path>
    </defs>
    <g id="Token-Migration" stroke="none" stroke-width="1" fill="none" fill-rule="evenodd">
        <g id="04.6-Prepare-Transaction-Meta-Mask-Transaction-Error" transform="translate(-595.000000, -208.000000)">
            <rect fill="#EDF3F7" x="0" y="0" width="1440" height="800"></rect>
            <g id="Group-4" transform="translate(270.000000, 150.000000)">
                <g id="alert-octagon" transform="translate(425.000000, 158.000000)">
                    <mask id="mask-2" fill="white">
                        <use xlink:href="#path-1"></use>
                    </mask>
                    <use id="Combined-Shape" fill="#000000" fill-rule="evenodd" xlink:href="#path-1"></use>
                    <g id="COLOR/-black" mask="url(#mask-2)" fill="#000000" fill-rule="evenodd">
                        <rect id="Rectangle" x="0" y="0" width="50" height="50"></rect>
                    </g>
                </g>
            </g>
        </g>
    </g>
</svg>

<svg width="250" height="250" xmlns="http://www.w3.org/2000/svg" xmlns:xlink="http://www.w3.org/1999/xlink"><defs><path d="M16.375 2.083h17.25c.553 0 1.082.22 1.473.61l12.208 12.209c.391.39.61.92.61 1.473v17.25c0 .553-.219 1.082-.61 1.473L35.098 47.306c-.39.391-.92.61-1.473.61h-17.25c-.553 0-1.082-.219-1.473-.61L2.694 35.098c-.391-.39-.61-.92-.61-1.473v-17.25c0-.553.219-1.082.61-1.473L14.902 2.694c.39-.391.92-.61 1.473-.61zm.863 4.167L6.25 17.238v15.524L17.238 43.75h15.524L43.75 32.762V17.238L32.762 6.25H17.238zm5.679 10.417a2.083 2.083 0 1 1 4.166 0V25a2.083 2.083 0 0 1-4.166 0v-8.333zm.61 16.056a2.083 2.083 0 1 1 2.946-2.946 2.083 2.083 0 0 1-2.946 2.946z" id="a"/></defs><g fill="none" fill-rule="evenodd"><path fill="#EDF3F7" d="M-595-208H845v800H-595z"/><g transform="translate(100 100)"><mask id="b" fill="#fff"><use xlink:href="#a"/></mask><use fill="#000" xlink:href="#a"/><g mask="url(#b)" fill="#000"><path d="M0 0h50v50H0z"/></g></g></g></svg>
